X: 168
T: Sir John Scott's Favourite     Irish
%R: slip-jig
B: Urbani & Liston "A Selection of Scotch, English Irish, and Foreign Airs", Edinburgh 1800, p.64 #3
F: http://www.vwml.org/browse/browse-collections-dance-tune-books/browse-urbani1800
Z: 2014 John Chambers <jc:trillian.mit.edu>
N: Several spurious dots ignored.
M: 9/8
L: 1/8
K: G
A |\
(G/A/B)G A>GE EDE | (G/A/B)G AGE c2e |\
dBG AGE EDE | (G/A/B)G A>GE G2 :| e |\
dBG G>AG (e/f/g)e | dBG GBG TA2e |
dBG G>AG (e/f/g)e | dBG TA>GE G2e |\
dBG GBG Te>fg | dBG GBG A2e |\
dBG dBG (e/f/g)e | dBG A>GE G2 |]

%%sep 1 1 500
%%sep 1 1 500
